polaris-icons/icons/newicons/CreditCardPercentMajor.svg

<svg width="20" height="20" viewBox="0 0 20 20" fill="none" xmlns="http://www.w3.org/2000/svg">
<path fill-rule="evenodd" clip-rule="evenodd" d="M5.75 4C3.67893 4 2 5.67893 2 7.75V12.25C2 14.3211 3.67893 16 5.75 16H11.25C11.6642 16 12 15.6642 12 15.25C12 14.8358 11.6642 14.5 11.25 14.5H5.75C4.50736 14.5 3.5 13.4926 3.5 12.25V9H16.5V9.25C16.5 9.66421 16.8358 10 17.25 10C17.6642 10 18 9.66421 18 9.25V7.75C18 5.67893 16.3211 4 14.25 4H5.75ZM16.4863 7.5C16.3619 6.37501 15.4081 5.5 14.25 5.5H5.75C4.59186 5.5 3.63809 6.37501 3.51373 7.5H16.4863Z" fill="black"/>
<path d="M5 12.25C5 11.8358 5.33579 11.5 5.75 11.5H9.75C10.1642 11.5 10.5 11.8358 10.5 12.25C10.5 12.6642 10.1642 13 9.75 13H5.75C5.33579 13 5 12.6642 5 12.25Z" fill="black"/>
<path d="M17.4697 11.4697L13.4697 15.4697C13.1768 15.7626 13.1768 16.2374 13.4697 16.5303C13.7626 16.8232 14.2374 16.8232 14.5303 16.5303L18.5303 12.5303C18.8232 12.2374 18.8232 11.7626 18.5303 11.4697C18.2374 11.1768 17.7626 11.1768 17.4697 11.4697Z" fill="black"/>
<path d="M15 12C15 12.5523 14.5523 13 14 13C13.4477 13 13 12.5523 13 12C13 11.4477 13.4477 11 14 11C14.5523 11 15 11.4477 15 12Z" fill="black"/>
<path d="M18 17C18.5523 17 19 16.5523 19 16C19 15.4477 18.5523 15 18 15C17.4477 15 17 15.4477 17 16C17 16.5523 17.4477 17 18 17Z" fill="black"/>
</svg>

<svg viewBox="0 0 20 20" fill="none" xmlns="http://www.w3.org/2000/svg"><path fill-rule="evenodd" clip-rule="evenodd" d="M5.75 4a3.75 3.75 0 0 0-3.75 3.75v4.5a3.75 3.75 0 0 0 3.75 3.75h5.5a.75.75 0 0 0 0-1.5h-5.5a2.25 2.25 0 0 1-2.25-2.25v-3.25h13v.25a.75.75 0 0 0 1.5 0v-1.5a3.75 3.75 0 0 0-3.75-3.75h-8.5Zm10.736 3.5a2.25 2.25 0 0 0-2.236-2h-8.5a2.25 2.25 0 0 0-2.236 2h12.972Z" fill="#000"/><path d="M5 12.25a.75.75 0 0 1 .75-.75h4a.75.75 0 0 1 0 1.5h-4a.75.75 0 0 1-.75-.75Z" fill="#000"/><path d="m17.47 11.47-4 4a.75.75 0 1 0 1.06 1.06l4-4a.75.75 0 1 0-1.06-1.06Z" fill="#000"/><path d="M15 12a1 1 0 1 1-2 0 1 1 0 0 1 2 0Z" fill="#000"/><path d="M18 17a1 1 0 1 0 0-2 1 1 0 0 0 0 2Z" fill="#000"/></svg>
